EL_ZONE_SLOG3_false_color.cube
# EL_ZONE_SLOG3_FALSE_COLOR
LUT_3D_SIZE 5
0.000000 0.000000 0.000000
0.000000 0.000000 0.000000
0.086275 0.447059 0.643137
0.560784 0.541176 0.517647
0.960784 0.650980 0.286275
0.086275 0.447059 0.643137
0.086275 0.447059 0.643137
0.176471 0.682353 0.894118
0.988235 0.898039 0.007843
0.960784 0.650980 0.286275
0.560784 0.541176 0.517647
0.560784 0.541176 0.517647
0.988235 0.898039 0.007843
1.000000 0.972549 0.654902
0.960784 0.650980 0.286275
0.960784 0.650980 0.286275
0.960784 0.650980 0.286275
0.960784 0.650980 0.286275
0.960784 0.650980 0.286275
0.929412 0.117647 0.141176
1.000000 1.000000 1.000000
1.000000 1.000000 1.000000
1.000000 1.000000 1.000000
1.000000 1.000000 1.000000
1.000000 1.000000 1.000000
0.000000 0.000000 0.000000
0.000000 0.000000 0.000000
0.086275 0.447059 0.643137
0.560784 0.541176 0.517647
0.960784 0.650980 0.286275
0.086275 0.447059 0.643137
0.176471 0.682353 0.894118
0.176471 0.682353 0.894118
0.988235 0.898039 0.007843
0.960784 0.650980 0.286275
0.988235 0.898039 0.007843
0.988235 0.898039 0.007843
0.988235 0.898039 0.007843
1.000000 0.972549 0.654902
0.960784 0.650980 0.286275
0.960784 0.650980 0.286275
0.960784 0.650980 0.286275
0.960784 0.650980 0.286275
0.960784 0.650980 0.286275
0.929412 0.117647 0.141176
1.000000 1.000000 1.000000
1.000000 1.000000 1.000000
1.000000 1.000000 1.000000
1.000000 1.000000 1.000000
1.000000 1.000000 1.000000
0.086275 0.647059 0.286275
0.086275 0.647059 0.286275
0.368627 0.733333 0.282353
0.988235 0.898039 0.007843
0.960784 0.650980 0.286275
0.368627 0.733333 0.282353
0.368627 0.733333 0.282353
0.368627 0.733333 0.282353
0.988235 0.898039 0.007843
0.960784 0.650980 0.286275
0.988235 0.898039 0.007843
0.988235 0.898039 0.007843
0.988235 0.898039 0.007843
1.000000 0.972549 0.654902
0.960784 0.650980 0.286275
0.960784 0.650980 0.286275
0.960784 0.650980 0.286275
0.960784 0.650980 0.286275
0.960784 0.650980 0.286275
0.929412 0.117647 0.141176
1.000000 1.000000 1.000000
1.000000 1.000000 1.000000
1.000000 1.000000 1.000000
1.000000 1.000000 1.000000
1.000000 1.000000 1.000000
1.000000 0.972549 0.654902
1.000000 0.972549 0.654902
1.000000 0.972549 0.654902
0.956863 0.443137 0.160784
0.960784 0.650980 0.286275
1.000000 0.972549 0.654902
1.000000 0.972549 0.654902
1.000000 0.972549 0.654902
0.956863 0.443137 0.160784
0.960784 0.650980 0.286275
0.956863 0.443137 0.160784
0.956863 0.443137 0.160784
0.956863 0.443137 0.160784
0.956863 0.443137 0.160784
0.960784 0.650980 0.286275
0.960784 0.650980 0.286275
0.960784 0.650980 0.286275
0.960784 0.650980 0.286275
0.960784 0.650980 0.286275
0.929412 0.117647 0.141176
1.000000 1.000000 1.000000
1.000000 1.000000 1.000000
1.000000 1.000000 1.000000
1.000000 1.000000 1.000000
1.000000 1.000000 1.000000
0.941176 0.745098 0.749020
0.941176 0.745098 0.749020
0.941176 0.745098 0.749020
0.941176 0.745098 0.749020
0.941176 0.745098 0.749020
0.941176 0.745098 0.749020
0.941176 0.745098 0.749020
0.941176 0.745098 0.749020
0.941176 0.745098 0.749020
0.941176 0.745098 0.749020
0.941176 0.745098 0.749020
0.941176 0.745098 0.749020
0.941176 0.745098 0.749020
0.941176 0.745098 0.749020
0.941176 0.745098 0.749020
0.941176 0.745098 0.749020
0.941176 0.745098 0.749020
0.941176 0.745098 0.749020
0.941176 0.745098 0.749020
0.941176 0.745098 0.749020
1.000000 1.000000 1.000000
1.000000 1.000000 1.000000
1.000000 1.000000 1.000000
1.000000 1.000000 1.000000
1.000000 1.000000 1.000000
